X: 1
T: the Saint Kilda Wedding
R: reel
B: Hunter #251; Kerr's 2nd p.7 #34 (reel but in index as strathspey);
Z: 1997 by John Chambers <jc:trillian.mit.edu>
M: 4/4
L: 1/8
K: A
"A"|:\
"A"~A2A2 Acec | "D"~B2cA "E7"F2 EF | "A"~A2 A2 "F#m"Acec |1 "D"~f2fe "E7"fefa :|2 "D"~f2ag "E7"fefg ||
"B1"[|\
"A"~a2ab aeea | "D"fgag "E7"f2ed | "A"cefg "F#m"agfa | "A"eaca "E7"B2AF ||
"B2"||\
"A" Aaag aeea | "D"fgag "E7"f2ed | "A"cefg "F#m"agfa | "A"ecac "E7"B2AF |]
